documentation/public/assets/images/sortable.svg

<svg width="80" height="32" viewBox="0 0 80 32" fill="none" xmlns="http://www.w3.org/2000/svg">
<path d="M23.33 21.67H15.33C14.78 21.67 14.33 21.22 14.33 20.67C14.33 20.12 14.78 19.67 15.33 19.67H23.33C23.88 19.67 24.33 20.12 24.33 20.67C24.33 21.22 23.88 21.67 23.33 21.67Z" fill="#0F67F5"/>
<path d="M26 27H15.33C14.78 27 14.33 26.55 14.33 26C14.33 25.45 14.78 25 15.33 25H26C26.55 25 27 25.45 27 26C27 26.55 26.55 27 26 27Z" fill="#0F67F5"/>
<path d="M20.67 16.33H15.34C14.79 16.33 14.34 15.88 14.34 15.33C14.34 14.78 14.79 14.33 15.34 14.33H20.67C21.22 14.33 21.67 14.78 21.67 15.33C21.67 15.88 21.22 16.33 20.67 16.33Z" fill="#0F67F5"/>
<path d="M14.0003 11.0003C13.7403 11.0003 13.4903 10.9003 13.2903 10.7103L10.0003 7.42031L6.71031 10.7103C6.32031 11.1003 5.69031 11.1003 5.30031 10.7103C4.91031 10.3203 4.91031 9.69031 5.30031 9.30031L9.30031 5.30031C9.69031 4.91031 10.3203 4.91031 10.7103 5.30031L14.7103 9.30031C15.1003 9.69031 15.1003 10.3203 14.7103 10.7103C14.5103 10.9103 14.2603 11.0003 14.0003 11.0003Z" fill="#0F67F5"/>
<path d="M10 27C9.45 27 9 26.55 9 26V7.33C9 6.78 9.45 6.33 10 6.33C10.55 6.33 11 6.78 11 7.33V26C11 26.55 10.55 27 10 27Z" fill="#0F67F5"/>
<path d="M71.33 12.33H63.33C62.78 12.33 62.33 11.88 62.33 11.33C62.33 10.78 62.78 10.33 63.33 10.33H71.33C71.88 10.33 72.33 10.78 72.33 11.33C72.33 11.88 71.88 12.33 71.33 12.33Z" fill="#0F67F5"/>
<path d="M74 7H63.33C62.78 7 62.33 6.55 62.33 6C62.33 5.45 62.78 5 63.33 5H74C74.55 5 75 5.45 75 6C75 6.55 74.55 7 74 7Z" fill="#0F67F5"/>
<path d="M68.67 17.67H63.34C62.79 17.67 62.34 17.22 62.34 16.67C62.34 16.12 62.79 15.67 63.34 15.67H68.67C69.22 15.67 69.67 16.12 69.67 16.67C69.67 17.22 69.22 17.67 68.67 17.67Z" fill="#0F67F5"/>
<path d="M57.9996 27.0003C57.7396 27.0003 57.4896 26.9003 57.2896 26.7103L53.2896 22.7103C52.8996 22.3203 52.8996 21.6903 53.2896 21.3003C53.6796 20.9103 54.3096 20.9103 54.6996 21.3003L57.9896 24.5903L61.2796 21.3003C61.6696 20.9103 62.2996 20.9103 62.6896 21.3003C63.0796 21.6903 63.0796 22.3203 62.6896 22.7103L58.6896 26.7103C58.4896 26.9103 58.2396 27.0003 57.9796 27.0003H57.9996Z" fill="#0F67F5"/>
<path d="M58 25.67C57.45 25.67 57 25.22 57 24.67V6C57 5.45 57.45 5 58 5C58.55 5 59 5.45 59 6V24.67C59 25.22 58.55 25.67 58 25.67Z" fill="#0F67F5"/>
</svg>

<svg width="80" height="32" fill="none" xmlns="http://www.w3.org/2000/svg"><path d="M23.33 21.67h-8a1 1 0 0 1-1-1 1 1 0 0 1 1-1h8a1 1 0 0 1 1 1 1 1 0 0 1-1 1ZM26 27H15.33a1 1 0 0 1-1-1 1 1 0 0 1 1-1H26a1 1 0 0 1 1 1 1 1 0 0 1-1 1Zm-5.33-10.67h-5.33a1 1 0 0 1-1-1 1 1 0 0 1 1-1h5.33a1 1 0 0 1 1 1 1 1 0 0 1-1 1ZM14 11c-.26 0-.51-.1-.71-.29L10 7.42l-3.29 3.29A1 1 0 1 1 5.3 9.3l4-4a1 1 0 0 1 1.41 0l4 4A1 1 0 0 1 14 11Z" fill="#0F67F5"/><path d="M10 27a1 1 0 0 1-1-1V7.33a1 1 0 0 1 1-1 1 1 0 0 1 1 1V26a1 1 0 0 1-1 1Zm61.33-14.67h-8a1 1 0 0 1-1-1 1 1 0 0 1 1-1h8a1 1 0 0 1 1 1 1 1 0 0 1-1 1ZM74 7H63.33a1 1 0 0 1-1-1 1 1 0 0 1 1-1H74a1 1 0 0 1 1 1 1 1 0 0 1-1 1Zm-5.33 10.67h-5.33a1 1 0 0 1-1-1 1 1 0 0 1 1-1h5.33a1 1 0 0 1 1 1 1 1 0 0 1-1 1ZM58 27c-.26 0-.51-.1-.71-.29l-4-4a1 1 0 1 1 1.41-1.41l3.29 3.29 3.29-3.29a1 1 0 1 1 1.41 1.41l-4 4c-.2.2-.45.29-.71.29H58Z" fill="#0F67F5"/><path d="M58 25.67a1 1 0 0 1-1-1V6a1 1 0 0 1 1-1 1 1 0 0 1 1 1v18.67a1 1 0 0 1-1 1Z" fill="#0F67F5"/></svg>
